X: 1606
T: The Post Office
M:2/4
L:1/16
R:Hornpipe
B:O'Neill's 1606
N:"Collected by F.O'Neill."
Z:Transcribed by Michael D. Long, 10/03/98
K:G
(GA)|Bdde dBAG|Bcde d2BA|Beef edBA|Beef e2e2|\
gabg fgaf|Tgfed e2ge|dBAB dBAB|G2GG G2:|
|:(ga)|babg agaf|gabg agef|gfge dBGB|TBAAG A2 z2|\
gabg fgaf|Tgfed e2ge|dBAB dBAB|G2 GG G2:|


